X: 19
T:Muiñeira de Arbo
M:6/8
L:1/8
R:Muiñeira
K:C
cBc | A2G cBc | A2G cBc | GAG FED | EDC cBc | A2G cBc | A2G cBc | GAG FE
D | C3 :|
|: "F."GCD | E2E EDE | F4 B,C | D2D DEF | EDC "F."GCD | E2E EDE| F4 GF |
 EFE DED | C3 :| 

